X: 42644
T: Whiskey In A Pint Glass
R: polka
M: 2/4
K: Gmajor
B2 c2 B2 A2|G2 E2 E2 (3DEF|1 G2 G2 G2 A2|1 dedc B2dc:|2 BdBA G4||
g3 a g2 e2|d2 B2 B2 d2|e2 a2 a2 ga|b2 a2 a2 e2|
f2 g2 f2 e2|d2 e2 d2 c2|1 BcBA GAGA|B2 G2 G2 d2:|2 BcBA dedc|B2 G2 G4||
B2c2B2A2 G2E2E2 (3DEF|G2G2G2A2 dedc B2dc:|G2G2G2A2 BdBA G4||
g3ag2e2 d2B2B2d2|e2a2a2ga b2a2a2e2|f2g2f2e2 d2e2d2c2|BcBA GAGA B2G2G2d2:|BcBA dedc B2G2 G4||

